X: 54
T: Oyster Girl -North Skelton
T: North Skelton -Oyster Girl
M:6/8
Q:3/8=3D135
O:England
A:North Skelton
N:2nd tune for sword dance, from Douglas Kennedy's description in the EFDSS
S:Chris Partington <ChrisTheFiddlerPartington:Hotmail.com> tradtunes 2009-8-1
Z:J. Winspear
K:G
ded B2d|c2B A2F|GAG G2B|d3 A2d|!
ded  B2g|f2e c2e|ded c2A|G3 G3||!
B3-BcB|e3 e3|A3-Ace|d3 d2d|!
ded  B2g|f2e c2e|ded c2A|G3 G3|]!


